svg/500/outlined/humidity_percentage-fill.svg

<svg xmlns="http://www.w3.org/2000/svg" width="48" height="48" viewBox="0 -960 960 960"><path d="M580.118-250Q601-250 615.5-264.618q14.5-14.617 14.5-35.5Q630-321 615.382-335.5q-14.617-14.5-35.5-14.5Q559-350 544.5-335.382q-14.5 14.617-14.5 35.5Q530-279 544.618-264.5q14.617 14.5 35.5 14.5ZM378-256l246-246-42-42-246 246 42 42Zm2.118-194Q401-450 415.5-464.618q14.5-14.617 14.5-35.5Q430-521 415.382-535.5q-14.617-14.5-35.5-14.5Q359-550 344.5-535.382q-14.5 14.617-14.5 35.5Q330-479 344.618-464.5q14.617 14.5 35.5 14.5Zm99.857 375.978q-139.549 0-232.751-95.713T154.022-408q0-101.413 80.934-220.837Q315.891-748.261 480-887.891q164.109 139.63 245.163 259.054Q806.218-509.413 806.218-408q0 142.552-93.347 238.265T479.975-74.022Z"/></svg>

<svg xmlns="http://www.w3.org/2000/svg" width="48" height="48" viewBox="0 -960 960 960"><path d="M580.12-250q20.88 0 35.38-14.62 14.5-14.62 14.5-35.5 0-20.88-14.62-35.38-14.62-14.5-35.5-14.5-20.88 0-35.38 14.62-14.5 14.62-14.5 35.5 0 20.88 14.62 35.38 14.62 14.5 35.5 14.5ZM378-256l246-246-42-42-246 246 42 42Zm2.12-194q20.88 0 35.38-14.62 14.5-14.62 14.5-35.5 0-20.88-14.62-35.38-14.62-14.5-35.5-14.5-20.88 0-35.38 14.62-14.5 14.62-14.5 35.5 0 20.88 14.62 35.38 14.62 14.5 35.5 14.5Zm99.86 375.98q-139.55 0-232.76-95.71-93.2-95.72-93.2-238.27 0-101.41 80.94-220.84Q315.89-748.26 480-887.89q164.11 139.63 245.16 259.05Q806.22-509.41 806.22-408q0 142.55-93.35 238.27-93.35 95.71-232.89 95.71Z"/></svg>
